assets/icons/windows-filled.svg

<?xml version="1.0" encoding="UTF-8" standalone="no"?>
<svg
   viewBox="0 0 24 24"
   width="24"
   height="24"
   version="1.1"
   id="svg8"
   sodipodi:docname="windows-filled.svg"
   inkscape:version="1.2 (1:1.2.1+202207142221+cd75a1ee6d)"
   xmlns:inkscape="http://www.inkscape.org/namespaces/inkscape"
   xmlns:sodipodi="http://sodipodi.sourceforge.net/DTD/sodipodi-0.dtd"
   xmlns="http://www.w3.org/2000/svg"
   xmlns:svg="http://www.w3.org/2000/svg"
   xmlns:rdf="http://www.w3.org/1999/02/22-rdf-syntax-ns#"
   xmlns:cc="http://creativecommons.org/ns#"
   xmlns:dc="http://purl.org/dc/elements/1.1/">
  <metadata
     id="metadata14">
    <rdf:RDF>
      <cc:Work
         rdf:about="">
        <dc:format>image/svg+xml</dc:format>
        <dc:type
           rdf:resource="http://purl.org/dc/dcmitype/StillImage" />
      </cc:Work>
    </rdf:RDF>
  </metadata>
  <defs
     id="defs12" />
  <sodipodi:namedview
     pagecolor="#ffffff"
     bordercolor="#666666"
     borderopacity="1"
     objecttolerance="10"
     gridtolerance="10"
     guidetolerance="10"
     inkscape:pageopacity="0"
     inkscape:pageshadow="2"
     inkscape:window-width="1920"
     inkscape:window-height="1043"
     id="namedview10"
     showgrid="true"
     inkscape:zoom="27.500001"
     inkscape:cx="12.727272"
     inkscape:cy="11.672727"
     inkscape:window-x="0"
     inkscape:window-y="0"
     inkscape:window-maximized="1"
     inkscape:current-layer="svg8"
     inkscape:document-rotation="0"
     inkscape:pagecheckerboard="0"
     inkscape:snap-page="true"
     inkscape:showpageshadow="2"
     inkscape:deskcolor="#d1d1d1">
    <inkscape:grid
       type="xygrid"
       id="grid839" />
  </sodipodi:namedview>
  <path
     id="path291"
     style="fill:#808080;fill-rule:evenodd;stroke-width:2;stroke-linecap:square;stroke-linejoin:round"
     d="M 12 3 C 11.446002 3 11 3.4460012 11 4 L 11 5 L 21 5 L 21 4 C 21 3.4460012 20.553998 3 20 3 L 12 3 z M 11 6 L 11 12 C 11 12.553998 11.446002 13 12 13 L 20 13 C 20.553998 13 21 12.553998 21 12 L 21 6 L 11 6 z " />
  <path
     id="path354"
     style="fill:#808080;fill-rule:evenodd;stroke-width:2;stroke-linecap:square;stroke-linejoin:round"
     d="M 4 11 C 3.4460026 11 3 11.446002 3 12 L 3 13 L 10 13 L 10 11 L 4 11 z M 3 14 L 3 20 C 3 20.553997 3.4460026 21 4 21 L 12 21 C 12.553997 21 13 20.553997 13 20 L 13 14 L 10 14 L 3 14 z " />
</svg>

<svg width="24" height="24" xmlns="http://www.w3.org/2000/svg"><path style="fill:gray;stroke-width:2;stroke-linecap:square;stroke-linejoin:round" d="M12 3c-.554 0-1 .446-1 1v1h10V4c0-.554-.446-1-1-1h-8zm-1 3v6c0 .554.446 1 1 1h8c.554 0 1-.446 1-1V6H11zm-7 5c-.554 0-1 .446-1 1v1h7v-2H4zm-1 3v6c0 .554.446 1 1 1h8c.554 0 1-.446 1-1v-6H3z"/></svg>
